svg/nature/pumpkin_fill.svg

<?xml version="1.0" encoding="UTF-8"?>
<svg width="24px" height="24px" viewBox="0 0 24 24" version="1.1" xmlns="http://www.w3.org/2000/svg" xmlns:xlink="http://www.w3.org/1999/xlink">
    <title>pumpkin_fill</title>
    <g id="Icon" stroke="none" stroke-width="1" fill="none" fill-rule="evenodd">
        <g id="Nature" transform="translate(-672.000000, -50.000000)">
            <g id="pumpkin_fill" transform="translate(672.000000, 50.000000)">
                <path d="M24,0 L24,24 L0,24 L0,0 L24,0 Z M12.5935,23.2578 L12.5819,23.2595 L12.5109,23.295 L12.4919,23.2987 L12.4767,23.295 L12.4057,23.2595 C12.3958,23.2564 12.387,23.259 12.3821,23.2649 L12.378,23.2758 L12.3609,23.7031 L12.3659,23.7235 L12.3769,23.7357 L12.4805,23.8097 L12.4953,23.8136 L12.5071,23.8097 L12.6107,23.7357 L12.6233,23.7197 L12.6267,23.7031 L12.6096,23.2758 C12.6076,23.2657 12.601,23.2593 12.5935,23.2578 Z M12.8584,23.1453 L12.8445,23.1473 L12.6598,23.2397 L12.6499,23.2499 L12.6472,23.2611 L12.6651,23.6906 L12.6699,23.7034 L12.6784,23.7105 L12.8793,23.8032 C12.8914,23.8069 12.9022,23.803 12.9078,23.7952 L12.9118,23.7812 L12.8777,23.1665 C12.8753,23.1546 12.8674,23.147 12.8584,23.1453 Z M12.143,23.1473 C12.1332,23.1424 12.1222,23.1453 12.1156,23.1526 L12.1099,23.1665 L12.0758,23.7812 C12.0751,23.7927 12.0828,23.8019 12.0926,23.8046 L12.1083,23.8032 L12.3092,23.7105 L12.3186,23.7024 L12.3225,23.6906 L12.3404,23.2611 L12.3372,23.2485 L12.3278,23.2397 L12.143,23.1473 Z" id="MingCute" fill-rule="nonzero"></path>
                <path d="M13.196,5.21935 C13.2704,5.03275 13.3658,4.83391 13.4825,4.6395 C13.6348,4.38559 13.79,4.19693 13.9206,4.08381 C13.9818,4.03073 14.0211,4.00801 14.0387,3.99926 C14.5731,3.97892 15,3.53932 15,3 C15,2.44772 14.5523,2 14,2 C13.4142,2 12.939,2.28788 12.6107,2.57244 C12.2725,2.86557 11.9902,3.23941 11.7675,3.6105 C11.498,4.05965 11.2637,4.59452 11.1271,5.11525 C10.5293,5.27585 9.9907,5.59489 9.52204,6.0125 C8.52427,5.29003 7.34612,4.9037 6.11081,5.12152 C4.43835,5.41642 3.2462,6.71249 2.58454,8.29151 C1.91797,9.88225 1.71963,11.8911 2.08355,13.9551 C2.44747,16.019 3.32093,17.8389 4.49137,19.1057 C5.65318,20.3632 7.21672,21.1733 8.88918,20.8784 C9.33124,20.8005 9.74411,20.6503 10.1235,20.4413 C10.6801,20.7894 11.3122,21 12,21 C12.6877,21 13.3198,20.7894 13.8765,20.4413 C14.2559,20.6502 14.6688,20.8005 15.1108,20.8784 C16.7833,21.1733 18.3468,20.3632 19.5086,19.1057 C20.6791,17.8388 21.5525,16.0189 21.9165,13.955 C22.2804,11.8911 22.0821,9.88223 21.4155,8.29149 C20.7538,6.71247 19.5617,5.4164 17.8892,5.1215 C16.6539,4.90368 15.4757,5.29002 14.4779,6.01253 C14.0953,5.67158 13.6661,5.39632 13.196,5.21935 Z M9.70431,7.13615 C10.1814,7.41435 10.3426,8.02665 10.0644,8.50374 C9.42834,9.59454 9,11.1844 9,13 C9,15.056 9.54837,16.8097 10.3143,17.8842 C10.6349,18.3339 10.5302,18.9584 10.0805,19.279 C9.63073,19.5995 9.00628,19.4949 8.68571,19.0451 C7.62271,17.5539 7,15.3651 7,13 C7,10.8982 7.49104,8.94649 8.33671,7.49626 C8.61492,7.01917 9.22722,6.85794 9.70431,7.13615 Z M14.2957,7.13615 C14.7728,6.85794 15.3851,7.01917 15.6633,7.49626 C16.509,8.94649 17,10.8982 17,13 C17,15.3651 16.3773,17.5539 15.3143,19.0451 C14.9937,19.4949 14.3693,19.5995 13.9195,19.279 C13.4698,18.9584 13.3651,18.3339 13.6857,17.8842 C14.4516,16.8097 15,15.056 15,13 C15,11.1844 14.5717,9.59454 13.9356,8.50374 C13.6574,8.02665 13.8186,7.41435 14.2957,7.13615 Z" id="形状" fill="#09244B"></path>
            </g>
        </g>
    </g>
</svg>

<svg xmlns="http://www.w3.org/2000/svg" width="24" height="24"><g fill="none" fill-rule="evenodd"><path d="M24 0v24H0V0h24ZM12.594 23.258l-.012.002-.071.035-.02.004-.014-.004-.071-.036c-.01-.003-.019 0-.024.006l-.004.01-.017.428.005.02.01.013.104.074.015.004.012-.004.104-.074.012-.016.004-.017-.017-.427c-.002-.01-.009-.017-.016-.018Zm.264-.113-.014.002-.184.093-.01.01-.003.011.018.43.005.012.008.008.201.092c.012.004.023 0 .029-.008l.004-.014-.034-.614c-.003-.012-.01-.02-.02-.022Zm-.715.002a.023.023 0 0 0-.027.006l-.006.014-.034.614c0 .012.007.02.017.024l.015-.002.201-.093.01-.008.003-.011.018-.43-.003-.012-.01-.01-.184-.092Z"/><path fill="#09244B" d="M13.196 5.22c.074-.187.17-.386.287-.58.152-.254.307-.443.438-.556a.596.596 0 0 1 .118-.085A1 1 0 0 0 14 2c-.586 0-1.061.288-1.39.572-.337.294-.62.667-.842 1.039-.27.449-.504.984-.64 1.504-.599.16-1.137.48-1.606.898-.998-.723-2.176-1.11-3.411-.891-1.673.294-2.865 1.59-3.526 3.17-.667 1.59-.865 3.6-.501 5.663.363 2.064 1.237 3.884 2.407 5.15 1.162 1.258 2.726 2.068 4.398 1.773a3.982 3.982 0 0 0 1.235-.437A3.513 3.513 0 0 0 12 21c.688 0 1.32-.21 1.877-.559.379.21.792.36 1.234.437 1.672.295 3.236-.515 4.398-1.772 1.17-1.267 2.043-3.087 2.407-5.151.364-2.064.166-4.073-.5-5.664-.662-1.579-1.854-2.875-3.527-3.17-1.235-.217-2.413.169-3.411.892a4.118 4.118 0 0 0-1.282-.794ZM9.704 7.135a1 1 0 0 1 .36 1.368C9.428 9.594 9 11.184 9 13c0 2.056.548 3.81 1.314 4.884a1 1 0 1 1-1.628 1.161C7.623 17.554 7 15.365 7 13c0-2.102.491-4.054 1.337-5.504a1 1 0 0 1 1.367-.36Zm4.592 0a1 1 0 0 1 1.367.36C16.51 8.946 17 10.898 17 13c0 2.365-.623 4.554-1.686 6.045a1 1 0 1 1-1.628-1.16C14.452 16.81 15 15.055 15 13c0-1.816-.428-3.405-1.064-4.496a1 1 0 0 1 .36-1.368Z"/></g></svg>
